public/icon.svg

<svg xml:space="preserve" xmlns="http://www.w3.org/2000/svg" width="256" height="256" viewBox="0 0 4 4"><defs><clipPath id="a"><rect width="4" height="4" rx=".5"/></clipPath></defs><g clip-path="url(#a)"><path fill="#dfdecf" d="M-1 2h3v3h-3z"/><path fill="#908ca3" d="M1 2h2v3H1z"/><path fill="#342c40" d="M2 2h2v3H2z"/><path fill="#160b26" d="M3 2h2v3H3z"/><path fill="#521955" d="M-1-1h3v4h-3z"/><path fill="#dc263c" d="M1-1h2v4H1z"/><path fill="#ff9b00" d="M2-1h2v4H2z"/><path fill="#ffed47" d="M3-1h2v4H3z"/></g><g paint-order="markers fill stroke"><path d="M0 1.75h4v1.5H0z" fill-opacity=".5"/><g stroke="#fff" fill="none" stroke-miterlimit="32"><path d="m.375 2.125v.75H.75a.125.125 135 0 0 .125-.125v-.21875a.125.125 45 0 0-.125-.125H.375" stroke-width=".25"/><path d="M.375 2.375h.1875a.125.125 135 0 0 .125-.125v-.03125a.125.125 45 0 0-.125-.125H.25" stroke-width=".1875"/><path d="M2 2.125h-.625v.75H2" stroke-width=".25"/><path d="M1.375 2.40625h.375" stroke-width=".1875"/><g stroke-width=".25"><path d="M2.25 2.125H3"/><path d="M2.625 2.125V3"/><path d="M3.375 3v-.625a.25.25 135 0 1 .25-.25.25.25 45 0 1 .25.25V3"/><path d="m3.375 2.625h.5"/></g></g></g></svg>

<?xml version="1.0" encoding="UTF-8" standalone="no"?>
<svg
   width="256"
   height="256"
   viewBox="0 0 4 4"
   version="1.1"
   id="svg8"
   sodipodi:docname="icon.svg"
   inkscape:version="1.4.2 (ebf0e940d0, 2025-05-08)"
   xml:space="preserve"
   xmlns:inkscape="http://www.inkscape.org/namespaces/inkscape"
   xmlns:sodipodi="http://sodipodi.sourceforge.net/DTD/sodipodi-0.dtd"
   xmlns="http://www.w3.org/2000/svg"
   xmlns:svg="http://www.w3.org/2000/svg"><sodipodi:namedview
     id="namedview8"
     pagecolor="#ffffff"
     bordercolor="#666666"
     borderopacity="1.0"
     inkscape:showpageshadow="2"
     inkscape:pageopacity="0.0"
     inkscape:pagecheckerboard="0"
     inkscape:deskcolor="#d1d1d1"
     showgrid="true"
     inkscape:zoom="1"
     inkscape:cx="314.5"
     inkscape:cy="85.5"
     inkscape:window-width="2560"
     inkscape:window-height="1388"
     inkscape:window-x="2560"
     inkscape:window-y="27"
     inkscape:window-maximized="1"
     inkscape:current-layer="svg8"><inkscape:grid
       id="grid8"
       units="px"
       originx="0"
       originy="0"
       spacingx="0.015625"
       spacingy="0.015625"
       empcolor="#0099e5"
       empopacity="0.30196078"
       color="#0099e5"
       opacity="0.14901961"
       empspacing="16"
       enabled="true"
       visible="true" /></sodipodi:namedview><defs
     id="defs1"><inkscape:path-effect
       effect="fillet_chamfer"
       id="path-effect15"
       is_visible="true"
       lpeversion="1"
       nodesatellites_param="F,0,0,1,0,0,0,1 @ F,0,0,1,0,0.25,0,1 @ F,0,0,1,0,0.25,0,1 @ F,0,0,1,0,0.25,0,1"
       radius="16"
       unit="px"
       method="auto"
       mode="F"
       chamfer_steps="1"
       flexible="false"
       use_knot_distance="true"
       apply_no_radius="true"
       apply_with_radius="true"
       only_selected="false"
       hide_knots="false" /><inkscape:path-effect
       effect="fillet_chamfer"
       id="path-effect11"
       is_visible="true"
       lpeversion="1"
       nodesatellites_param="F,0,0,1,0,0,0,1 @ F,0,1,1,0,0.125,0,1 @ F,0,1,1,0,0.125,0,1 @ F,0,0,1,0,0,0,1"
       radius="6"
       unit="px"
       method="auto"
       mode="F"
       chamfer_steps="1"
       flexible="false"
       use_knot_distance="true"
       apply_no_radius="true"
       apply_with_radius="true"
       only_selected="true"
       hide_knots="false" /><inkscape:path-effect
       effect="fillet_chamfer"
       id="path-effect10"
       is_visible="true"
       lpeversion="1"
       nodesatellites_param="F,0,0,1,0,0,0,1 @ F,0,0,1,0,0,0,1 @ F,0,1,1,0,0.125,0,1 @ F,0,1,1,0,0.125,0,1 @ F,0,0,1,0,0,0,1"
       radius="8"
       unit="px"
       method="auto"
       mode="F"
       chamfer_steps="1"
       flexible="false"
       use_knot_distance="true"
       apply_no_radius="true"
       apply_with_radius="true"
       only_selected="true"
       hide_knots="false" /><clipPath
       id="a"><rect
         width="4"
         height="4"
         fill="#fff"
         rx=".5"
         id="rect1" /></clipPath></defs><g
     clip-path="url(#a)"
     id="g8"><path
       fill="#dfdecf"
       d="M-1 2h3v3h-3z"
       id="path1" /><path
       fill="#908ca3"
       d="M1 2h2v3H1z"
       id="path2" /><path
       fill="#342c40"
       d="M2 2h2v3H2z"
       id="path3" /><path
       fill="#160b26"
       d="M3 2h2v3H3z"
       id="path4" /><path
       fill="#521955"
       d="M-1-1h3v4h-3z"
       id="path5" /><path
       fill="#dc263c"
       d="M1-1h2v4H1z"
       id="path6" /><path
       fill="#ff9b00"
       d="M2-1h2v4H2z"
       id="path7" /><path
       fill="#ffed47"
       d="M3-1h2v4H3z"
       id="path8" /></g><rect
     style="fill:#000000;stroke:none;stroke-width:0.25;stroke-miterlimit:32;stroke-dasharray:none;stroke-opacity:1;paint-order:markers fill stroke;fill-opacity:0.5"
     id="rect16"
     width="4"
     height="1.5"
     x="0"
     y="1.75" /><g
     id="g16"
     style="stroke:#ffffff;stroke-opacity:1"><path
       style="fill:none;stroke:#ffffff;stroke-width:0.25;stroke-miterlimit:32;stroke-dasharray:none;stroke-opacity:1;paint-order:markers fill stroke"
       d="m 0.375,2.125 v 0.75 H 0.75 A 0.125,0.125 135 0 0 0.875,2.75 V 2.53125 A 0.125,0.125 45 0 0 0.75,2.40625 H 0.375"
       id="path10"
       inkscape:path-effect="#path-effect10"
       inkscape:original-d="m 0.375,2.125 v 0.75 h 0.5 V 2.40625 h -0.5"
       sodipodi:nodetypes="ccccc" /><path
       style="fill:none;stroke:#ffffff;stroke-width:0.1875;stroke-miterlimit:32;stroke-dasharray:none;stroke-opacity:1;paint-order:markers fill stroke"
       d="M 0.375,2.375 H 0.5625 A 0.125,0.125 135 0 0 0.6875,2.25 V 2.21875 a 0.125,0.125 45 0 0 -0.125,-0.125 H 0.25"
       id="path9"
       sodipodi:nodetypes="cccc"
       inkscape:path-effect="#path-effect11"
       inkscape:original-d="M 0.375,2.375 H 0.6875 V 2.09375 H 0.25" /><path
       style="fill:none;stroke:#ffffff;stroke-width:0.25;stroke-miterlimit:32;stroke-dasharray:none;paint-order:markers fill stroke;stroke-opacity:1"
       d="M 2,2.125 H 1.375 v 0.75 H 2"
       id="path11"
       sodipodi:nodetypes="cccc" /><path
       style="fill:none;stroke:#ffffff;stroke-width:0.1875;stroke-miterlimit:32;stroke-dasharray:none;paint-order:markers fill stroke;stroke-opacity:1"
       d="M 1.375,2.40625 H 1.75"
       id="path12"
       sodipodi:nodetypes="cc" /><path
       style="fill:none;stroke:#ffffff;stroke-width:0.25;stroke-miterlimit:32;stroke-dasharray:none;paint-order:markers fill stroke;stroke-opacity:1"
       d="M 2.25,2.125 H 3"
       id="path13" /><path
       style="fill:none;stroke:#ffffff;stroke-width:0.25;stroke-miterlimit:32;stroke-dasharray:none;paint-order:markers fill stroke;stroke-opacity:1"
       d="M 2.625,2.125 V 3"
       id="path14" /><path
       style="fill:none;stroke:#ffffff;stroke-width:0.25;stroke-miterlimit:32;stroke-dasharray:none;paint-order:markers fill stroke;stroke-opacity:1"
       d="M 3.375,3 V 2.375 a 0.25,0.25 135 0 1 0.25,-0.25 0.25,0.25 45 0 1 0.25,0.25 V 3"
       id="path15"
       sodipodi:nodetypes="cccc"
       inkscape:path-effect="#path-effect15"
       inkscape:original-d="M 3.375,3 V 2.125 h 0.5 V 3" /><path
       style="fill:none;stroke:#ffffff;stroke-width:0.25;stroke-miterlimit:32;stroke-dasharray:none;paint-order:markers fill stroke;stroke-opacity:1"
       d="m 3.375,2.625 h 0.5"
       id="path16"
       sodipodi:nodetypes="cc" /></g></svg>
